svg/color/dweb.svg

<?xml version="1.0" encoding="UTF-8" ?>
<!DOCTYPE svg PUBLIC "-//W3C//DTD SVG 1.1//EN" "http://www.w3.org/Graphics/SVG/1.1/DTD/svg11.dtd">
<svg width="250pt" height="250pt" viewBox="0 0 250 250" version="1.1" xmlns="http://www.w3.org/2000/svg">
<g id="#ffffffff">
<path fill="#ffffff" opacity="1.00" d=" M 0.00 0.00 L 250.00 0.00 L 250.00 250.00 L 0.00 250.00 L 0.00 0.00 M 118.34 6.17 C 118.34 9.97 118.34 13.77 118.35 17.56 C 122.64 17.60 126.94 17.59 131.23 17.47 C 131.18 13.71 131.17 9.95 131.17 6.19 C 126.90 6.17 122.62 6.17 118.34 6.17 M 54.12 32.63 C 57.61 32.73 61.15 33.01 64.62 32.39 C 69.28 31.36 73.09 28.29 77.42 26.46 C 84.44 23.39 91.63 20.71 98.99 18.58 C 102.17 17.62 105.62 17.85 108.74 16.70 C 111.30 15.61 110.44 12.49 110.68 10.30 C 90.05 11.60 71.01 21.26 54.12 32.63 M 138.42 10.48 C 138.86 12.03 138.42 14.10 139.74 15.29 C 141.92 16.72 144.54 17.20 147.02 17.88 C 155.96 19.98 164.57 23.29 172.87 27.19 C 179.25 30.02 185.86 33.75 193.11 32.54 C 190.89 29.09 187.03 27.38 183.67 25.29 C 174.04 19.51 163.54 15.20 152.64 12.50 C 147.98 11.41 143.27 9.92 138.42 10.48 M 36.73 40.51 C 36.75 44.26 36.75 48.01 36.76 51.77 C 40.62 51.81 44.47 51.81 48.33 51.82 C 48.35 48.03 48.35 44.24 48.35 40.45 C 44.48 40.42 40.61 40.43 36.73 40.51 M 197.31 40.43 C 197.31 44.22 197.31 48.01 197.31 51.80 C 201.59 51.81 205.87 51.82 210.15 51.77 C 210.20 47.98 210.17 44.19 210.07 40.41 C 205.81 40.44 201.56 40.46 197.31 40.43 M 26.53 63.54 C 19.54 74.30 15.05 86.55 12.07 98.99 C 11.14 102.39 10.42 105.87 10.38 109.41 C 12.37 109.13 14.35 108.85 16.33 108.54 C 18.19 102.02 19.61 95.38 22.00 89.03 C 25.34 79.07 30.74 70.04 35.27 60.61 C 32.17 60.66 28.31 60.41 26.53 63.54 M 215.17 62.38 C 220.27 73.05 225.99 83.48 229.39 94.86 C 231.07 99.56 231.46 104.72 233.84 109.14 C 235.06 111.46 237.80 109.93 239.64 109.44 C 238.15 99.03 234.65 89.03 230.86 79.26 C 228.55 74.03 226.32 68.66 223.07 63.93 C 221.36 61.21 217.79 62.45 215.17 62.38 M 130.56 91.87 C 122.74 114.65 114.60 137.33 107.07 160.21 C 110.24 161.53 113.35 163.12 116.75 163.76 C 118.18 161.64 118.99 159.20 119.91 156.84 C 128.24 134.54 135.64 111.91 143.63 89.49 C 140.49 88.29 137.37 86.55 133.93 86.57 C 131.76 87.24 131.48 90.08 130.56 91.87 M 77.39 112.40 C 72.43 116.08 67.16 119.44 62.99 124.06 C 68.92 129.12 75.08 133.90 81.10 138.86 C 84.82 141.71 88.23 145.05 92.44 147.20 C 94.86 144.37 97.18 141.46 99.18 138.32 C 93.29 133.60 87.37 128.89 81.62 123.99 C 87.16 119.54 93.30 115.89 98.73 111.30 C 96.78 107.94 94.55 104.76 92.10 101.75 C 87.16 105.25 82.30 108.86 77.39 112.40 M 150.27 111.23 C 155.90 115.42 161.79 119.29 166.99 124.04 C 161.98 129.57 155.72 133.71 150.16 138.64 C 152.48 141.55 154.82 144.45 157.18 147.33 C 166.75 140.63 175.65 133.03 184.72 125.69 C 186.61 124.76 185.69 122.64 184.28 121.78 C 175.64 114.40 165.92 108.42 156.96 101.43 C 154.76 104.72 152.54 107.99 150.27 111.23 M 5.24 118.12 C 4.64 121.86 4.90 125.67 4.93 129.45 C 8.79 129.48 12.65 129.48 16.51 129.47 C 16.52 125.60 16.52 121.72 16.46 117.85 C 12.72 117.91 8.95 117.52 5.24 118.12 M 232.74 118.32 C 232.83 122.02 232.85 125.73 232.82 129.44 C 236.70 129.48 240.57 129.49 244.45 129.48 C 244.46 125.60 244.46 121.73 244.40 117.86 C 240.51 117.76 236.60 117.67 232.74 118.32 M 10.37 138.51 C 10.45 140.70 10.51 142.91 10.98 145.06 C 13.77 157.81 17.60 170.51 24.15 181.89 C 25.39 183.89 26.62 186.08 28.66 187.39 C 30.85 188.05 33.18 187.76 35.44 187.86 C 27.81 176.37 22.09 163.62 18.66 150.26 C 17.79 146.26 17.07 142.20 15.40 138.43 C 13.72 138.45 12.04 138.47 10.37 138.51 M 233.62 139.87 C 232.09 143.07 231.63 146.63 230.68 150.02 C 227.13 163.39 221.94 176.48 213.93 187.84 C 216.89 187.67 220.74 188.61 222.67 185.64 C 227.22 179.79 229.87 172.75 232.58 165.92 C 235.71 157.09 238.95 148.08 239.44 138.64 C 237.52 138.85 234.56 137.40 233.62 139.87 M 36.76 195.58 C 36.77 199.30 36.76 203.02 36.67 206.74 C 40.53 207.30 44.43 207.27 48.32 207.15 C 48.35 203.28 48.35 199.42 48.34 195.55 C 44.48 195.54 40.62 195.54 36.76 195.58 M 197.35 207.14 C 201.33 207.12 205.32 207.37 209.30 207.08 C 211.22 203.77 209.73 199.32 210.15 195.58 C 205.89 195.55 201.63 195.55 197.38 195.50 C 197.30 199.38 197.28 203.26 197.35 207.14 M 52.81 215.81 C 69.70 228.51 89.80 236.79 110.66 240.03 C 110.62 238.24 110.70 236.45 110.42 234.68 C 109.38 233.44 107.68 233.23 106.23 232.77 C 96.69 230.52 87.37 227.36 78.38 223.48 C 73.25 221.31 68.55 218.13 63.15 216.62 C 59.79 215.67 56.27 215.76 52.81 215.81 M 177.13 220.38 C 165.71 226.22 153.50 230.38 141.06 233.43 C 138.18 233.98 138.30 237.68 139.17 239.83 C 142.54 239.90 145.78 238.80 149.01 237.97 C 155.41 236.19 161.86 234.53 168.04 232.07 C 174.43 229.36 180.52 225.99 186.52 222.52 C 189.38 220.78 192.57 219.23 194.42 216.31 C 188.31 215.33 182.43 217.57 177.13 220.38 M 118.34 231.20 C 118.34 235.41 118.34 239.62 118.34 243.83 C 122.62 243.83 126.90 243.83 131.17 243.80 C 131.18 239.61 131.18 235.41 131.17 231.22 C 126.89 231.20 122.62 231.20 118.34 231.20 Z" />
</g>
<g id="#4c97f2ff">
<path fill="#4c97f2" opacity="1.00" d=" M 118.34 6.17 C 122.62 6.17 126.90 6.17 131.17 6.19 C 131.17 9.95 131.18 13.71 131.23 17.47 C 126.94 17.59 122.64 17.60 118.35 17.56 C 118.34 13.77 118.34 9.97 118.34 6.17 Z" />
<path fill="#4c97f2" opacity="1.00" d=" M 54.12 32.63 C 71.01 21.26 90.05 11.60 110.68 10.30 C 110.44 12.49 111.30 15.61 108.74 16.70 C 105.62 17.85 102.17 17.62 98.99 18.58 C 91.63 20.71 84.44 23.39 77.42 26.46 C 73.09 28.29 69.28 31.36 64.62 32.39 C 61.15 33.01 57.61 32.73 54.12 32.63 Z" />
<path fill="#4c97f2" opacity="1.00" d=" M 138.42 10.48 C 143.27 9.92 147.98 11.41 152.64 12.50 C 163.54 15.20 174.04 19.51 183.67 25.29 C 187.03 27.38 190.89 29.09 193.11 32.54 C 185.86 33.75 179.25 30.02 172.87 27.19 C 164.57 23.29 155.96 19.98 147.02 17.88 C 144.54 17.20 141.92 16.72 139.74 15.29 C 138.42 14.10 138.86 12.03 138.42 10.48 Z" />
<path fill="#4c97f2" opacity="1.00" d=" M 36.73 40.51 C 40.61 40.43 44.48 40.42 48.35 40.45 C 48.35 44.24 48.35 48.03 48.33 51.82 C 44.47 51.81 40.62 51.81 36.76 51.77 C 36.75 48.01 36.75 44.26 36.73 40.51 Z" />
<path fill="#4c97f2" opacity="1.00" d=" M 197.31 40.43 C 201.56 40.46 205.81 40.44 210.07 40.41 C 210.17 44.19 210.20 47.98 210.15 51.77 C 205.87 51.82 201.59 51.81 197.31 51.80 C 197.31 48.01 197.31 44.22 197.31 40.43 Z" />
<path fill="#4c97f2" opacity="1.00" d=" M 26.53 63.54 C 28.31 60.41 32.17 60.66 35.27 60.61 C 30.74 70.04 25.34 79.07 22.00 89.03 C 19.61 95.38 18.19 102.02 16.33 108.54 C 14.35 108.85 12.37 109.13 10.38 109.41 C 10.42 105.87 11.14 102.39 12.07 98.99 C 15.05 86.55 19.54 74.30 26.53 63.54 Z" />
<path fill="#4c97f2" opacity="1.00" d=" M 215.17 62.38 C 217.79 62.45 221.36 61.21 223.07 63.93 C 226.32 68.66 228.55 74.03 230.86 79.26 C 234.65 89.03 238.15 99.03 239.64 109.44 C 237.80 109.93 235.06 111.46 233.84 109.14 C 231.46 104.72 231.07 99.56 229.39 94.86 C 225.99 83.48 220.27 73.05 215.17 62.38 Z" />
<path fill="#4c97f2" opacity="1.00" d=" M 130.56 91.87 C 131.48 90.08 131.76 87.24 133.93 86.57 C 137.37 86.55 140.49 88.29 143.63 89.49 C 135.64 111.91 128.24 134.54 119.91 156.84 C 118.99 159.20 118.18 161.64 116.75 163.76 C 113.35 163.12 110.24 161.53 107.07 160.21 C 114.60 137.33 122.74 114.65 130.56 91.87 Z" />
<path fill="#4c97f2" opacity="1.00" d=" M 77.39 112.40 C 82.30 108.86 87.16 105.25 92.10 101.75 C 94.55 104.76 96.78 107.94 98.73 111.30 C 93.30 115.89 87.16 119.54 81.62 123.99 C 87.37 128.89 93.29 133.60 99.18 138.32 C 97.18 141.46 94.86 144.37 92.44 147.20 C 88.23 145.05 84.82 141.71 81.10 138.86 C 75.08 133.90 68.92 129.12 62.99 124.06 C 67.16 119.44 72.43 116.08 77.39 112.40 Z" />
<path fill="#4c97f2" opacity="1.00" d=" M 150.27 111.23 C 152.54 107.99 154.76 104.72 156.96 101.43 C 165.92 108.42 175.64 114.40 184.28 121.78 C 185.69 122.64 186.61 124.76 184.72 125.69 C 175.65 133.03 166.75 140.63 157.18 147.33 C 154.82 144.45 152.48 141.55 150.16 138.64 C 155.72 133.71 161.98 129.57 166.99 124.04 C 161.79 119.29 155.90 115.42 150.27 111.23 Z" />
<path fill="#4c97f2" opacity="1.00" d=" M 5.24 118.12 C 8.95 117.52 12.72 117.91 16.46 117.85 C 16.52 121.72 16.52 125.60 16.51 129.47 C 12.65 129.48 8.79 129.48 4.93 129.45 C 4.90 125.67 4.64 121.86 5.24 118.12 Z" />
<path fill="#4c97f2" opacity="1.00" d=" M 232.74 118.32 C 236.60 117.67 240.51 117.76 244.40 117.86 C 244.46 121.73 244.46 125.60 244.45 129.48 C 240.57 129.49 236.70 129.48 232.82 129.44 C 232.85 125.73 232.83 122.02 232.74 118.32 Z" />
<path fill="#4c97f2" opacity="1.00" d=" M 10.37 138.51 C 12.04 138.47 13.72 138.45 15.40 138.43 C 17.07 142.20 17.79 146.26 18.66 150.26 C 22.09 163.62 27.81 176.37 35.44 187.86 C 33.18 187.76 30.85 188.05 28.66 187.39 C 26.62 186.08 25.39 183.89 24.15 181.89 C 17.60 170.51 13.77 157.81 10.98 145.06 C 10.51 142.91 10.45 140.70 10.37 138.51 Z" />
<path fill="#4c97f2" opacity="1.00" d=" M 233.62 139.87 C 234.56 137.40 237.52 138.85 239.44 138.64 C 238.95 148.08 235.71 157.09 232.58 165.92 C 229.87 172.75 227.22 179.79 222.67 185.64 C 220.74 188.61 216.89 187.67 213.93 187.84 C 221.94 176.48 227.13 163.39 230.68 150.02 C 231.63 146.63 232.09 143.07 233.62 139.87 Z" />
<path fill="#4c97f2" opacity="1.00" d=" M 36.76 195.58 C 40.62 195.54 44.48 195.54 48.34 195.55 C 48.35 199.42 48.35 203.28 48.32 207.15 C 44.43 207.27 40.53 207.30 36.67 206.74 C 36.76 203.02 36.77 199.30 36.76 195.58 Z" />
<path fill="#4c97f2" opacity="1.00" d=" M 197.35 207.14 C 197.28 203.26 197.30 199.38 197.38 195.50 C 201.63 195.55 205.89 195.55 210.15 195.58 C 209.73 199.32 211.22 203.77 209.30 207.08 C 205.32 207.37 201.33 207.12 197.35 207.14 Z" />
<path fill="#4c97f2" opacity="1.00" d=" M 52.81 215.81 C 56.27 215.76 59.79 215.67 63.15 216.62 C 68.55 218.13 73.25 221.31 78.38 223.48 C 87.37 227.36 96.69 230.52 106.23 232.77 C 107.68 233.23 109.38 233.44 110.42 234.68 C 110.70 236.45 110.62 238.24 110.66 240.03 C 89.80 236.79 69.70 228.51 52.81 215.81 Z" />
<path fill="#4c97f2" opacity="1.00" d=" M 177.13 220.38 C 182.43 217.57 188.31 215.33 194.42 216.31 C 192.57 219.23 189.38 220.78 186.52 222.52 C 180.52 225.99 174.43 229.36 168.04 232.07 C 161.86 234.53 155.41 236.19 149.01 237.97 C 145.78 238.80 142.54 239.90 139.17 239.83 C 138.30 237.68 138.18 233.98 141.06 233.43 C 153.50 230.38 165.71 226.22 177.13 220.38 Z" />
<path fill="#4c97f2" opacity="1.00" d=" M 118.34 231.20 C 122.62 231.20 126.89 231.20 131.17 231.22 C 131.18 235.41 131.18 239.61 131.17 243.80 C 126.90 243.83 122.62 243.83 118.34 243.83 C 118.34 239.62 118.34 235.41 118.34 231.20 Z" />
</g>
</svg>

<?xml version="1.0" encoding="utf-8"?>
<!-- Generator: Adobe Illustrator 26.0.3, SVG Export Plug-In . SVG Version: 6.00 Build 0)  -->
<svg version="1.1" id="Layer_1" xmlns="http://www.w3.org/2000/svg" xmlns:xlink="http://www.w3.org/1999/xlink" x="0px" y="0px"
	 viewBox="0 0 250 250" style="enable-background:new 0 0 250 250;" xml:space="preserve">
<style type="text/css">
	.st0{fill:#4C97F2;}
</style>
<g id="_x23_4c97f2ff">
	<path class="st0" d="M118.3,6.2c4.3,0,8.6,0,12.8,0c0,3.8,0,7.5,0.1,11.3c-4.3,0.1-8.6,0.1-12.9,0.1C118.3,13.8,118.3,10,118.3,6.2
		z"/>
	<path class="st0" d="M54.1,32.6c16.9-11.4,35.9-21,56.6-22.3c-0.2,2.2,0.6,5.3-1.9,6.4c-3.1,1.1-6.6,0.9-9.8,1.9
		c-7.4,2.1-14.5,4.8-21.6,7.9c-4.3,1.8-8.1,4.9-12.8,5.9C61.2,33,57.6,32.7,54.1,32.6z"/>
	<path class="st0" d="M138.4,10.5c4.9-0.6,9.6,0.9,14.2,2c10.9,2.7,21.4,7,31,12.8c3.4,2.1,7.2,3.8,9.4,7.2
		c-7.2,1.2-13.9-2.5-20.2-5.4c-8.3-3.9-16.9-7.2-25.8-9.3c-2.5-0.7-5.1-1.2-7.3-2.6C138.4,14.1,138.9,12,138.4,10.5z"/>
	<path class="st0" d="M36.7,40.5c3.9-0.1,7.8-0.1,11.6-0.1c0,3.8,0,7.6,0,11.4c-3.9,0-7.7,0-11.6,0C36.8,48,36.8,44.3,36.7,40.5z"/>
	<path class="st0" d="M197.3,40.4c4.2,0,8.5,0,12.8,0c0.1,3.8,0.1,7.6,0.1,11.4c-4.3,0-8.6,0-12.8,0C197.3,48,197.3,44.2,197.3,40.4
		z"/>
	<path class="st0" d="M26.5,63.5c1.8-3.1,5.6-2.9,8.7-2.9C30.7,70,25.3,79.1,22,89c-2.4,6.3-3.8,13-5.7,19.5c-2,0.3-4,0.6-5.9,0.9
		c0-3.5,0.8-7,1.7-10.4C15.1,86.6,19.5,74.3,26.5,63.5z"/>
	<path class="st0" d="M215.2,62.4c2.6,0.1,6.2-1.2,7.9,1.5c3.2,4.7,5.5,10.1,7.8,15.3c3.8,9.8,7.3,19.8,8.8,30.2
		c-1.8,0.5-4.6,2-5.8-0.3c-2.4-4.4-2.8-9.6-4.4-14.3C226,83.5,220.3,73.1,215.2,62.4z"/>
	<path class="st0" d="M130.6,91.9c0.9-1.8,1.2-4.6,3.4-5.3c3.4,0,6.6,1.7,9.7,2.9c-8,22.4-15.4,45-23.7,67.3
		c-0.9,2.4-1.7,4.8-3.2,6.9c-3.4-0.6-6.5-2.2-9.7-3.5C114.6,137.3,122.7,114.7,130.6,91.9z"/>
	<path class="st0" d="M77.4,112.4c4.9-3.5,9.8-7.2,14.7-10.7c2.5,3,4.7,6.2,6.6,9.6c-5.4,4.6-11.6,8.2-17.1,12.7
		c5.8,4.9,11.7,9.6,17.6,14.3c-2,3.1-4.3,6-6.7,8.9c-4.2-2.1-7.6-5.5-11.3-8.3c-6-5-12.2-9.7-18.1-14.8
		C67.2,119.4,72.4,116.1,77.4,112.4z"/>
	<path class="st0" d="M150.3,111.2c2.3-3.2,4.5-6.5,6.7-9.8c9,7,18.7,13,27.3,20.3c1.4,0.9,2.3,3,0.4,3.9
		c-9.1,7.3-18,14.9-27.5,21.6c-2.4-2.9-4.7-5.8-7-8.7c5.6-4.9,11.8-9.1,16.8-14.6C161.8,119.3,155.9,115.4,150.3,111.2z"/>
	<path class="st0" d="M5.2,118.1c3.7-0.6,7.5-0.2,11.2-0.3c0.1,3.9,0.1,7.8,0.1,11.6c-3.9,0-7.7,0-11.6,0
		C4.9,125.7,4.6,121.9,5.2,118.1z"/>
	<path class="st0" d="M232.7,118.3c3.9-0.7,7.8-0.6,11.7-0.5c0.1,3.9,0.1,7.7,0.1,11.6c-3.9,0-7.8,0-11.6,0
		C232.9,125.7,232.8,122,232.7,118.3z"/>
	<path class="st0" d="M10.4,138.5c1.7,0,3.4-0.1,5-0.1c1.7,3.8,2.4,7.8,3.3,11.8c3.4,13.4,9.1,26.1,16.8,37.6
		c-2.3-0.1-4.6,0.2-6.8-0.5c-2-1.3-3.3-3.5-4.5-5.5c-6.5-11.4-10.4-24.1-13.2-36.8C10.5,142.9,10.4,140.7,10.4,138.5z"/>
	<path class="st0" d="M233.6,139.9c0.9-2.5,3.9-1,5.8-1.2c-0.5,9.4-3.7,18.4-6.9,27.3c-2.7,6.8-5.4,13.9-9.9,19.7
		c-1.9,3-5.8,2-8.7,2.2c8-11.4,13.2-24.4,16.8-37.8C231.6,146.6,232.1,143.1,233.6,139.9z"/>
	<path class="st0" d="M36.8,195.6c3.9,0,7.7,0,11.6,0c0,3.9,0,7.7,0,11.6c-3.9,0.1-7.8,0.2-11.7-0.4C36.8,203,36.8,199.3,36.8,195.6
		z"/>
	<path class="st0" d="M197.4,207.1c-0.1-3.9-0.1-7.8,0-11.6c4.2,0.1,8.5,0.1,12.8,0.1c-0.4,3.7,1.1,8.2-0.8,11.5
		C205.3,207.4,201.3,207.1,197.4,207.1z"/>
	<path class="st0" d="M52.8,215.8c3.5-0.1,7-0.1,10.3,0.8c5.4,1.5,10.1,4.7,15.2,6.9c9,3.9,18.3,7,27.9,9.3c1.4,0.5,3.1,0.7,4.2,1.9
		c0.3,1.8,0.2,3.6,0.2,5.4C89.8,236.8,69.7,228.5,52.8,215.8z"/>
	<path class="st0" d="M177.1,220.4c5.3-2.8,11.2-5.1,17.3-4.1c-1.8,2.9-5,4.5-7.9,6.2c-6,3.5-12.1,6.8-18.5,9.6
		c-6.2,2.5-12.6,4.1-19,5.9c-3.2,0.8-6.5,1.9-9.8,1.9c-0.9-2.2-1-5.9,1.9-6.4C153.5,230.4,165.7,226.2,177.1,220.4z"/>
	<path class="st0" d="M118.3,231.2c4.3,0,8.6,0,12.8,0c0,4.2,0,8.4,0,12.6c-4.3,0-8.5,0-12.8,0C118.3,239.6,118.3,235.4,118.3,231.2
		z"/>
</g>
</svg>
